X:12
T:Anna's Waltz
S:Derek Hoy, Edinburgh
Z:Nigel Gatherer
M:3/4
L:1/8
K:Em
B3 cBA | B3 cBA | B4 e2 | B3 def | g4 g2 | f4 e2 | f3 g f2 | B6 |
e4 e2 | d3 cBc | B4 A2 | G3 FEF | G3 A G2 | F3 G F2 | E6 | E6 :|
e4 e2 | g3 f e2 | d6 | B6 | A3 B c2 | c3 B A2 | B4 c2 | d6 |
e4 e2 | g3 f e2 | d6 | B6 | A3 B c2 | D2 E2 F2 | G3 AGF | G6 :|]
